X: 13171
T: First Of May, The
R: polka
M: 2/4
K: Dmajor
M:4/4
|:d>B|A2 F2 F2- F>A|B2 G2 G2- G>B|c2 A2 B2 c2|d2 A>d (3fec (3dcB|
A2 F>^E F>D (3FGA|B2 G2 G>DG>B|c2 A2 B>cd>e|f2 d2 d2-:|
|:d>B|A2 f2 (3fgf e>^d|e2 B2 B2- B>^A|B2 g2 g2- g>f|e>dc>B A>GF>G|
A2 f2 f2 e>^d|e2 B2 B2 B>^A|B2 g2 B>^AB>c|e2 d2 d2:|

